assets/github.svg

<?xml version="1.0" encoding="UTF-8" standalone="no"?>
<!DOCTYPE svg PUBLIC "-//W3C//DTD SVG 1.1//EN" "http://www.w3.org/Graphics/SVG/1.1/DTD/svg11.dtd">
<svg width="100%" height="100%" viewBox="0 0 31 31" version="1.1" xmlns="http://www.w3.org/2000/svg" xmlns:xlink="http://www.w3.org/1999/xlink" xml:space="preserve" xmlns:serif="http://www.serif.com/" style="fill-rule:evenodd;clip-rule:evenodd;stroke-linejoin:round;stroke-miterlimit:2;">
    <g transform="matrix(1,0,0,1,-299.222,-163.971)">
        <g transform="matrix(0.826995,0,0,0.826995,54.432,31.0327)">
            <path d="M333.252,170.061C333.252,164.921 329.079,160.748 323.939,160.748L305.313,160.748C300.173,160.748 296,164.921 296,170.061L296,188.687C296,193.827 300.173,198 305.313,198L323.939,198C329.079,198 333.252,193.827 333.252,188.687L333.252,170.061Z" style="fill:rgb(236,229,216);"/>
        </g>
        <g id="github.svg" transform="matrix(1,0,0,1,314.626,179.374)">
            <g transform="matrix(1,0,0,1,-8,-8)">
                <path d="M8,0C3.58,0 0,3.58 0,8C0,11.54 2.29,14.53 5.47,15.59C5.87,15.66 6.02,15.42 6.02,15.21C6.02,15.02 6.01,14.39 6.01,13.72C4,14.09 3.48,13.23 3.32,12.78C3.23,12.55 2.84,11.84 2.5,11.65C2.22,11.5 1.82,11.13 2.49,11.12C3.12,11.11 3.57,11.7 3.72,11.94C4.44,13.15 5.59,12.81 6.05,12.6C6.12,12.08 6.33,11.73 6.56,11.53C4.78,11.33 2.92,10.64 2.92,7.58C2.92,6.71 3.23,5.99 3.74,5.43C3.66,5.23 3.38,4.41 3.82,3.31C3.82,3.31 4.49,3.1 6.02,4.13C6.66,3.95 7.34,3.86 8.02,3.86C8.7,3.86 9.38,3.95 10.02,4.13C11.55,3.09 12.22,3.31 12.22,3.31C12.66,4.41 12.38,5.23 12.3,5.43C12.81,5.99 13.12,6.7 13.12,7.58C13.12,10.65 11.25,11.33 9.47,11.53C9.76,11.78 10.01,12.26 10.01,13.01C10.01,14.08 10,14.94 10,15.21C10,15.42 10.15,15.67 10.55,15.59C13.798,14.494 15.999,11.428 16,8C16,3.58 12.42,0 8,0Z" style="fill-rule:nonzero;"/>
            </g>
        </g>
    </g>
</svg>

<svg xmlns="http://www.w3.org/2000/svg" width="16" height="16" fill="currentColor" class="bi bi-github" viewBox="0 0 16 16">
  <path d="M8 0C3.58 0 0 3.58 0 8c0 3.54 2.29 6.53 5.47 7.59.4.07.55-.17.55-.38 0-.19-.01-.82-.01-1.49-2.01.37-2.53-.49-2.69-.94-.09-.23-.48-.94-.82-1.13-.28-.15-.68-.52-.01-.53.63-.01 1.08.58 1.23.82.72 1.21 1.87.87 2.33.66.07-.52.28-.87.51-1.07-1.78-.2-3.64-.89-3.64-3.95 0-.87.31-1.59.82-2.15-.08-.2-.36-1.02.08-2.12 0 0 .67-.21 2.2.82.64-.18 1.32-.27 2-.27.68 0 1.36.09 2 .27 1.53-1.04 2.2-.82 2.2-.82.44 1.1.16 1.92.08 2.12.51.56.82 1.27.82 2.15 0 3.07-1.87 3.75-3.65 3.95.29.25.54.73.54 1.48 0 1.07-.01 1.93-.01 2.2 0 .21.15.46.55.38A8.012 8.012 0 0 0 16 8c0-4.42-3.58-8-8-8z"/>
</svg>
